X:0606
M:2/4
L:1/8
Q:1/4=100
P:ABCA % Aird uses a da capo
K:G
P:A
gd Td2| ge       Te2     | d2 (c/B/A/G/)|(F/G/A/F/) D2 |\
gd Td2| ge       Te2     | dB (d/c/B/A/)| GG        G2::
P:B
P:C
fd``ef|(g/f/g/a/) g(b/g/)| fd``ef       | g2        bg |\
fd``ef|(g/f/g/a/) g(b/g/)| fd``ef       | g2        g2||

